packages/foundations/assets/icons/functional/images/business & payment/shopping_bag_14_filled.svg

<svg width="14" height="14" viewBox="0 0 14 14" fill="none" xmlns="http://www.w3.org/2000/svg">
<g clip-path="url(#clip0_2202_1471)">
<path fill-rule="evenodd" clip-rule="evenodd" d="M6.99996 1.40002C8.39996 1.40002 9.79996 2.45002 9.79996 4.20002H10.784C11.156 4.20002 11.463 4.48402 11.484 4.85602L11.9 11.856C11.9038 11.9511 11.8887 12.046 11.8555 12.1351C11.8222 12.2242 11.7715 12.3058 11.7063 12.3751C11.6411 12.4444 11.5627 12.5 11.4758 12.5386C11.3889 12.5772 11.2951 12.5981 11.2 12.6H2.79996C2.70484 12.5981 2.61106 12.5772 2.52412 12.5386C2.43717 12.5 2.35881 12.4444 2.29362 12.3751C2.22843 12.3058 2.17772 12.2242 2.14447 12.1351C2.11121 12.046 2.09608 11.9511 2.09996 11.856L2.51596 4.85602C2.52646 4.67785 2.60491 4.51048 2.73514 4.38843C2.86538 4.26638 3.03748 4.19895 3.21596 4.20002H4.19896C4.19896 2.45002 5.48996 1.40002 6.99996 1.40002ZM5.59996 6.30002H4.19996V6.78102C4.19996 8.64102 5.46896 9.80002 6.99996 9.80002C8.53096 9.80002 9.79996 8.64002 9.79996 6.78102V6.30002H8.39996V6.54002C8.39996 7.43702 8.11596 8.40002 6.99996 8.40002C5.88396 8.40002 5.59996 7.43702 5.59996 6.54002V6.30002ZM6.99996 2.80002C6.29996 2.80002 5.59996 3.21602 5.59996 4.20002H8.39996C8.39996 3.21602 7.69996 2.80002 6.99996 2.80002Z" fill="#1A1C1F"/>
</g>
<defs>
<clipPath id="clip0_2202_1471">
<rect width="14" height="14" fill="white"/>
</clipPath>
</defs>
</svg>

<svg xmlns="http://www.w3.org/2000/svg" width="14" height="14" fill="none"><g clip-path="url(#a)"><path fill="#1A1C1F" fill-rule="evenodd" d="M7 1.4c1.4 0 2.8 1.05 2.8 2.8h.984c.372 0 .679.284.7.656l.416 7a.717.717 0 0 1-.7.744H2.8a.715.715 0 0 1-.7-.744l.416-7a.697.697 0 0 1 .7-.656h.983C4.199 2.45 5.49 1.4 7 1.4M5.6 6.3H4.2v.481C4.2 8.641 5.469 9.8 7 9.8s2.8-1.16 2.8-3.019V6.3H8.4v.24c0 .897-.284 1.86-1.4 1.86s-1.4-.963-1.4-1.86zM7 2.8c-.7 0-1.4.416-1.4 1.4h2.8c0-.984-.7-1.4-1.4-1.4" clip-rule="evenodd"/></g><defs><clipPath id="a"><path fill="#fff" d="M0 0h14v14H0z"/></clipPath></defs></svg>
